remix/System/settings-fill.svg

<svg viewBox="0 0 24 24" fill="currentColor" xmlns="http://www.w3.org/2000/svg"><path d="M12 1L21.5 6.5V17.5L12 23L2.5 17.5V6.5L12 1ZM12 15C13.6569 15 15 13.6569 15 12C15 10.3431 13.6569 9 12 9C10.3431 9 9 10.3431 9 12C9 13.6569 10.3431 15 12 15Z"/></svg>

<svg viewBox="0 0 24 24" xmlns="http://www.w3.org/2000/svg"><path fill="none" d="M0 0h24v24H0Z"/><path d="M12 1l9.5 5.5v11L12 23l-9.5-5.5v-11L12 1Zm0 14v0c1.65 0 3-1.35 3-3 0-1.66-1.35-3-3-3v0c-1.66 0-3 1.34-3 3 0 1.65 1.34 3 3 3Z"/></svg>
